images/location-map.svg

<svg width="64" height="64" viewBox="0 0 64 64" fill="none" xmlns="http://www.w3.org/2000/svg">
<path d="M37.3332 20.6668C37.3332 17.7202 34.9465 15.3335 31.9998 15.3335C29.0532 15.3335 26.6665 17.7202 26.6665 20.6668C26.6665 23.6135 29.0532 26.0002 31.9998 26.0002C34.9465 26.0002 37.3332 23.6135 37.3332 20.6668ZM29.3332 20.6668C29.3332 19.2002 30.5332 18.0002 31.9998 18.0002C33.4665 18.0002 34.6665 19.2002 34.6665 20.6668C34.6665 22.1335 33.4665 23.3335 31.9998 23.3335C30.5332 23.3335 29.3332 22.1335 29.3332 20.6668Z" fill="#F7931E"/>
<path d="M5.33327 54H58.6666C59.1333 54 59.5599 53.76 59.7999 53.36C60.0399 52.96 60.0666 52.48 59.8533 52.0667L49.1866 30.7333C48.9599 30.28 48.5066 30 47.9999 30H39.6933C41.6666 25.64 42.6666 22.4933 42.6666 20.6667C42.6666 14.7867 37.8799 10 31.9999 10C26.1199 10 21.3333 14.7867 21.3333 20.6667C21.3333 22.4933 22.3333 25.64 24.3066 30H15.9999C15.4933 30 15.0399 30.28 14.8133 30.7333L4.14661 52.0667C3.93327 52.48 3.95994 52.9733 4.19994 53.36C4.43994 53.76 4.86661 54 5.33327 54ZM23.9999 20.6667C23.9999 16.2533 27.5866 12.6667 31.9999 12.6667C36.4133 12.6667 39.9999 16.2533 39.9999 20.6667C39.9999 23.72 35.9733 32.08 31.9999 39.28C28.0266 32.08 23.9999 23.72 23.9999 20.6667ZM16.8266 32.6667H25.5599C28.0533 37.8133 30.7333 42.4667 30.8533 42.6667C31.3333 43.4933 32.6933 43.4933 33.1599 42.6667C33.2799 42.4667 35.9599 37.8133 38.4533 32.6667H47.1866L56.5199 51.3333H7.49327L16.8266 32.6667Z" fill="#F7931E"/>
</svg>

<svg width="64" height="64" fill="none" xmlns="http://www.w3.org/2000/svg"><path d="M37.333 20.667A5.332 5.332 0 0 0 32 15.333a5.332 5.332 0 0 0-5.334 5.334A5.332 5.332 0 0 0 32 26a5.332 5.332 0 0 0 5.333-5.333Zm-8 0C29.333 19.2 30.533 18 32 18c1.467 0 2.666 1.2 2.666 2.667 0 1.466-1.2 2.666-2.666 2.666a2.674 2.674 0 0 1-2.667-2.666Z" fill="#F7931E"/><path d="M5.333 54h53.334c.466 0 .893-.24 1.133-.64s.267-.88.053-1.293L49.187 30.733A1.317 1.317 0 0 0 48 30h-8.307c1.974-4.36 2.974-7.507 2.974-9.333C42.667 14.787 37.88 10 32 10s-10.667 4.787-10.667 10.667c0 1.826 1 4.973 2.974 9.333H16c-.507 0-.96.28-1.187.733L4.147 52.067c-.214.413-.187.906.053 1.293.24.4.667.64 1.133.64ZM24 20.667c0-4.414 3.587-8 8-8s8 3.586 8 8c0 3.053-4.027 11.413-8 18.613-3.973-7.2-8-15.56-8-18.613Zm-7.173 12h8.733c2.493 5.146 5.173 9.8 5.293 10 .48.826 1.84.826 2.307 0 .12-.2 2.8-4.854 5.293-10h8.734l9.333 18.666H7.493l9.334-18.666Z" fill="#F7931E"/></svg>
